icon-themes/sifr_svg/cmd/ar/lc_numberingstart.svg

<svg viewBox="0 0 24 24" xmlns="http://www.w3.org/2000/svg"><g fill="#555753"><path d="m19 13c0 1.1-.9 2-2 2v2h2v5h2v-9zm-17 1v2h11v-2zm4 4v2h7v-2z"/><path d="m19 1c-1.66 0-3 1.34-3 3h2c0-.55.45-1 1-1s1 .45 1 1c0 .28-.059688.4203125-.179688.5703125l-3.820312 4.7890625v1.640625h6v-2h-3.199219l2.5-3.1992188c.321415-.2999999.699219-.8507812.699219-1.8007812 0-1.66-1.34-3-3-3zm-17 2v2h11v-2zm6 4v2h5v-2z" opacity=".35"/></g></svg>

<svg xmlns="http://www.w3.org/2000/svg" viewBox="0 0 24 24">
  <path
     style="fill:#555753"
     d="M 19 13 C 19 14.1 18.1 15 17 15 L 17 17 L 19 17 L 19 22 L 21 22 L 21 13 L 19 13 z M 2 14 L 2 16 L 13 16 L 13 14 L 2 14 z M 6 18 L 6 20 L 13 20 L 13 18 L 6 18 z "
     />
  <path
     style="opacity:0.35;fill:#555753"
     d="M 19 1 C 17.34 1 16 2.34 16 4 L 18 4 C 18 3.45 18.45 3 19 3 C 19.55 3 20 3.45 20 4 C 20 4.28 19.940312 4.4203125 19.820312 4.5703125 L 16 9.359375 L 16 11 L 22 11 L 22 9 L 18.800781 9 L 21.300781 5.8007812 C 21.622196 5.5007813 22 4.95 22 4 C 22 2.34 20.66 1 19 1 z M 2 3 L 2 5 L 13 5 L 13 3 L 2 3 z M 8 7 L 8 9 L 13 9 L 13 7 L 8 7 z "
     />
</svg>
